**kern	**kern
*staff2	*staff1
=1-	=1-
*clefF4	*clefG2
*k[f#c#]	*k[f#c#]
*b:	*b:
*M2/4	*M2/4
2r	8f#/
.	8r
.	8ff#\
.	8r
=2	=2
8FF#/L	16ee\LL
.	16dd\
8Cn/J 8E/ 8A/	16ccn\
.	16a\JJ
8C\ 8E\ 8A\	8e/L
8r	8ee-/J
=3	=3
8DD/L	16dd\LL
.	16ccn\
8D/J 8Fn/ 8B-/	16b-\
.	16a\JJ
8D\ 8F#\ 8B-\	8g/
8r	8r
=4	=4
8r	[2f#/
24EE#/LL	.
24FF#/	.
24GG/JJ	.
8FF#/L	.
8D/J	.
=5	=5
8BB/L	2f#/_
8D/J 8F#/	.
8FF#/L	.
8D/J 8F#/	.
=6	=6
8BB/	8f#/]
8r	8r
4r	8b\ 8bb\
.	16r
.	16b\ 16bb\
=7	=7
!!linebreak:original
8C#/L	8ccn\ 8bb\
8E/J 8F#/	8r
8FF#/L	8cc\ 8aa\
8E/J 8F#/	8r
=8	=8
8C#/L	4r
8E/J 8F#/	.
4r	8ccn\ 8bb\
.	16r
.	16cc\ 16aa\
=9	=9
8BB/L	8b\ 8gg\
8D/J 8F#/	8r
8FF#/L	8g\ 8dd\
8D/J 8F#/	8r
=10	=10
8BB/L	4r
8D/J 8F#/	.
4r	8g\ 8ee-\
.	16r
.	16fn/ 16dd/
=11	=11
8C#/L	8e-/ 8cc#/
8E/J 8F#/	8r
8FF#/L	8d/ 8g/
8E/J 8F#/	8r
=12	=12
8C#/L	8cn/ 8e-/
8E/J 8F#/	8r
8FF#/L	8e-/ 8dd/
8E/J 8F#/	8r
=13	=13
!!linebreak:original
8BB/L	8d/L 8b/
8D/J 8F#/	16e/L 16ccn/
.	16f#/JJ 16dd/
8FF#/L	16g\LL 16ee\
.	16a\ 16ff#\
8D/J 8F#/	16b\ 16gg\
.	16cc#\JJ 16aa\
=14	=14
8BB/L	8dd\ 8bb\
8D/J 8F#/	8r
4r	8dd\ 8ddd\
.	16r
.	16dd\ 16ccc#\
=15	=15
8EE-/L	8dd\ 8cccn\
8AA-/J 8G-/	8r
8EE-/L	8dd\ 8gg\
8AA-/J 8G-/	8r
=16	=16
8EE-/L	4r
8AA-/J 8G-/	.
4r	8dd\ 8ccc#\
.	16r
.	16dd\ 16cccn\
=17	=17
8EE/L	8dd#\ 8bb\
8AA/J 8G/	8r
8EE/L	8b\ 8ff#\
8AA/J 8G/	8r
=18	=18
8EE/L	4r
8AA/J 8G/	.
4r	8cc#\L
.	8ee\J
=19	=19
!!linebreak:original
2r	8.aa-\L
.	16gg\Jk
.	8ee-\L
.	8ccn\J
=20	=20
[2FFn/	4r
.	8e-/ 8dd/
.	8r
=21	=21
8FF/L]	8d/ 8b/
16FF#/L	8r
16GG/JJ	.
8FF#/L	4r
8DD/J	.
=22	=22
8BBB/	8r
8r	8dd\
4r	8c#/L
.	8d/J
=23	=23
8r	8d#/L
8D\	16e/L
.	16a/JJ
8Cn/L	8ccn\L
8BB/J	8aa-\J
=24	=24
8AA/L	8aa-\
8D/J 8cn/	8r
4r	8e-/L
.	8d/J
=25	=25
!!linebreak:original
8r	8c#/L
8C#/	16d/L
.	16g/JJ
8BB/L	8b-\L
8AA/J	8gg-\J
=26	=26
8GG#/L	8gg-\
8E/J 8d/	8r
8D/L	8.ee\L
8Cn/J	.
.	16ffn\Jk
=27	=27
8BB-/L	8eee-\ 8ggg\
8Fn/J 8d/	8r
8FFn/L	8ddd\ 8fff#\
8F/J 8d/	8r
=28	=28
8AA/L	8a\L 8aa\
16GG/L	16g\L 16gg\
16FFn/JJ	16fn\JJ 16ffn\
8EE/L	8e/L 8ee/
8DD/J	8d/J 8dd/
=29	=29
8AA/L	4r
16GG/L	.
16FFn/JJ	.
8EE/L	8fn/L
8DD/J	8a/J
=30	=30
8AA/L	8b-\L
16GG/L	8ee-\J
16FFn/JJ	.
8EE/L	8aa-\L
8DD/J	8aaa-\J
=31	=31
!!pagebreak:original
4r	[2fffn\
8E-\ 8d\	.
8r	.
=32	=32
[2D\ [2B\	8fff\L]
.	16fff#\L
.	16ggg\JJ
.	8fff#\L
.	8ddd\J
=33	=33
8D\] 8B\]	8bb\
8r	8r
8BBB/L	4r
8DD/J	.
=34	=34
4GG/	8r
.	8d/ 8b/ 8dd/
4FF#/	8r
.	8d/ 8b/ 8dd/
=35	=35
4FFn/	8d/ 8b/ 8dd/
.	8r
4EE/	8d/ 8b/ 8dd/
.	8r
=36	=36
[2EE-/	8r
.	16d/LL 16cc#/ 16ee/
.	16d/JJ 16cc#/ 16ee/
.	8d/L 8cc#/ 8ee/
.	8d/J 8cc#/ 8ee/
=37	=37
8EE-/]	8d/ 8cc#/ 8ee/
8r	8r
8AA/L	4r
8C#/J	.
=38	=38
!!linebreak:original
4Fn\	8r
.	8d/ 8cc#/ 8ee/
8E\L	8r
8E-\J	8d/ 8cc#/ 8ee/
=39	=39
4D\	8r
.	8d/ 8cc#/ 8ee/
4G\	8r
.	8d/ 8cc#/ 8ee/
=40	=40
2BB-/	8r
.	16e\LL 16dd\ 16ff#\
.	16e\JJ 16dd\ 16ff#\
.	8e\L 8dd\ 8ff#\
.	8e\J 8dd\ 8ff#\
=41	=41
8BB-/	8e\ 8dd\ 8ff#\
8r	8r
8AA/L	4r
8GG#/J	.
=42	=42
8AA/L	4.aa\
8Cn/J 8G/	.
8AA/L	.
8BB#/J	8gg\
=43	=43
8AA/L	8ff#\L
8Cn/J 8G/	8ee\J
8AA/L	8dd\L
8BB-/J	8cc#\J
=44	=44
8EE/L	8ccn\L
8D/J	16b\L
.	16b\JJ
8fn\L	8b\L
8e\J	8b\J
=45	=45
!!linebreak:original
4d\	8r
.	8b\ 8dd\ 8bb\
4cn\	8r
.	8b\ 8dd\ 8bb\
=46	=46
4B\	8r
.	8b\ 8dd\ 8bb\
[4A\	8r
.	8b\ 8dd\ 8bb\
=47	=47
8A\L]	8b\ 8dd\ 8bb\
16G\L	8r
16Fn\JJ	.
8E\L	4r
8D\J	.
=48	=48
*M3/4	*M3/4
8Cn/L	4r
16BB/L	.
16AA/JJ	.
8GG/	4r
4.FF#/	.
.	4ee-\ 4ddd\
=49	=49
*M2/4	*M2/4
8FF#/L	4dd\ 4bb\
16FF#/L	.
16GG/JJ	.
8FF#/L	4r
8DD/J	.
=50	=50
*M3/4	*M3/4
4r	4.dd\ 4.ff#\ 4.ddd\
4r	.
.	4.dd\ 4.ff#\ 4.ddd\
8r	.
24E\LL 24G\	.
24E\ 24G\	.
24E\JJ 24G\	.
=51	=51
!!linebreak:original
*M2/4	*M2/4
8BB/L	8dd\L 8ff#\ 8ddd\
8D/J 8F#/	8ccn\J 8dd\ 8ff#\ 8cccn\
8FF#/	4cc\ 4dd\ 4ff#\ 4ccc\
24E\LL 24G\	.
24E\ 24G\	.
24E\JJ 24G\	.
=52	=52
8BB/L	8ccn\L 8dd\ 8ff#\ 8ccc#\
8D/J 8F#/	8b\J 8dd\ 8ff#\ 8bb\
8AA/	4b\ 4dd\ 4ff#\ 4bb\
24E\LL 24G\	.
24E\ 24G\	.
24E\JJ 24G\	.
=53	=53
8BB/L	8b\L 8dd\ 8ff#\ 8bb\
8D/J 8F#/	8a\J 8dd\ 8ff#\ 8aa\
8FF#/	4a\ 4dd\ 4ff#\ 4aa\
24E\LL 24G\	.
24E\ 24G\	.
24E\JJ 24G\	.
=54	=54
8BB/L	8a\L 8dd\ 8ff#\ 8aa\
8D/J 8F#/	8g\J 8dd\ 8ff#\ 8gg\
8AA/	4g\ 4dd\ 4ff#\ 4gg\
24E\LL 24G\	.
24E\ 24G\	.
24E\JJ 24G\	.
=55	=55
8r	8e#/ 8g/
16Cn/LL	8r
16BB/JJ	.
8AA/L	4r
8GG/J	.
=56	=56
!!linebreak:original
2FFn/	4r
.	8F#/ 8f#/ 8dd/ 8ff#/
.	8r
=57	=57
8FF#/L 8D/	8b\ 8dd\ 8bb\
16EE/L	8r
16CC#/JJ	.
8CCn/L	[4B/
[8BBB/J	.
=58	=58
8BBB/]	8B/]
8r	8r
4r	4r
==	==
*-	*-
